X:2353
T:Great Eastern, The
O:england
M:C|
L:1/8
R:reel
K:D
D2FD CEAG|Fddc dAFA|GBeG FAdA|GFED CA,CE|
D2FD CEAG|Fddc dAFA|GBed cAGE|1 EDCE DA,B,C:|2 EDCE D2fg||
|:a^gaf =g~e3|dfec dAFA|GBeG FAdf|gfe^d efgb|
a~f3 g~e3|dfec dAFA|GBed cAGE|1 EDCE D2fg:|2 EDCE DA,B,C||


